<?xml version="1.0" encoding="UTF-8"?>
<map version="1.10" tiledversion="1.11.2" orientation="orthogonal" renderorder="right-down" width="20" height="20" tilewidth="16" tileheight="16" infinite="0" nextlayerid="5" nextobjectid="2">
 <tileset firstgid="1" source="tiles/FG_Cellar.tsx"/>
 <layer id="1" name="Tile Layer 1" width="20" height="20">
  <data encoding="csv">
0,0,0,0,0,0,0,43,43,43,43,43,43,0,0,0,0,0,0,0,
0,0,0,0,0,0,0,43,43,43,43,43,43,0,0,0,0,0,0,0,
0,0,0,0,0,0,0,43,43,43,43,43,43,0,0,0,0,0,0,0,
0,0,0,0,0,0,0,43,43,43,43,43,43,0,0,0,0,0,0,0,
0,0,0,0,0,0,0,43,43,43,43,43,43,0,0,0,0,0,0,0,
0,0,0,0,0,0,0,43,43,43,43,43,43,0,0,0,0,0,0,0,
0,0,0,0,0,0,0,43,43,43,43,43,43,0,0,0,0,0,0,0,
0,0,0,0,0,0,0,43,43,43,43,43,43,0,0,0,0,0,0,0,
0,0,0,0,0,0,0,43,43,43,43,43,43,0,0,0,0,0,0,0,
0,0,0,0,0,0,0,43,43,43,43,43,43,0,0,0,0,0,0,0,
0,0,0,0,0,0,0,43,43,43,43,43,43,0,0,0,0,0,0,0,
0,0,0,0,0,0,0,43,43,43,43,43,43,0,0,0,0,0,0,0,
0,0,0,0,0,0,0,43,43,43,43,43,43,0,0,0,0,0,0,0,
0,0,0,0,0,0,0,43,43,43,43,43,43,0,0,0,0,0,0,0,
0,0,0,0,0,0,0,43,43,43,43,43,43,0,0,0,0,0,0,0,
0,0,0,0,0,0,0,43,43,43,43,43,43,0,0,0,0,0,0,0,
0,0,0,0,0,0,0,43,43,43,43,43,43,0,0,0,0,0,0,0,
0,0,0,0,0,0,0,43,43,43,43,43,43,0,0,0,0,0,0,0,
0,0,0,0,0,0,0,43,43,43,43,43,43,0,0,0,0,0,0,0,
0,0,0,0,0,0,0,43,43,43,43,43,43,0,0,0,0,0,0,0
</data>
 </layer>
 <layer id="2" name="Tile Layer 2" width="20" height="20">
  <data encoding="csv">
0,0,0,0,0,0,0,70,0,0,0,0,72,0,0,0,0,0,0,0,
0,0,0,0,0,0,0,70,0,0,0,0,72,0,0,0,0,0,0,0,
0,0,0,0,0,0,0,70,0,0,0,0,72,0,0,0,0,0,0,0,
0,0,0,0,0,0,0,70,0,0,0,0,72,0,0,0,0,0,0,0,
0,0,0,0,0,0,0,70,0,0,0,0,72,0,0,0,0,0,0,0,
0,0,0,0,0,0,0,70,0,0,0,0,72,0,0,0,0,0,0,0,
0,0,0,0,0,0,0,70,0,0,0,0,72,0,0,0,0,0,0,0,
0,0,0,0,0,0,0,70,0,0,0,0,72,0,0,0,0,0,0,0,
0,0,0,0,0,0,0,70,0,0,0,0,72,0,0,0,0,0,0,0,
0,0,0,0,0,0,0,70,0,0,0,0,72,0,0,0,0,0,0,0,
0,0,0,0,0,0,0,70,0,0,0,0,72,0,0,0,0,0,0,0,
0,0,0,0,0,0,0,70,0,0,0,0,72,0,0,0,0,0,0,0,
0,0,0,0,0,0,0,70,0,0,0,0,72,0,0,0,0,0,0,0,
0,0,0,0,0,0,0,70,0,0,0,0,72,0,0,0,0,0,0,0,
0,0,0,0,0,0,0,70,0,0,0,0,72,0,0,0,0,0,0,0,
0,0,0,0,0,0,0,70,0,0,0,0,72,0,0,0,0,0,0,0,
0,0,0,0,0,0,0,70,0,0,0,0,72,0,0,0,0,0,0,0,
0,0,0,0,0,0,0,70,0,0,0,0,72,0,0,0,0,0,0,0,
0,0,0,0,0,0,0,70,0,0,0,0,72,0,0,0,0,0,0,0,
0,0,0,0,0,0,0,70,0,0,0,0,72,0,0,0,0,0,0,0
</data>
 </layer>
 <objectgroup id="3" name="hallway_entrance">
  <object id="1" x="126.76" y="-0.389" width="64.574" height="15.8603">
   <properties>
    <property name="target" value="&quot;"/>
   </properties>
  </object>
 </objectgroup>
 <layer id="4" name="3" width="20" height="20">
  <data encoding="csv">
0,0,0,0,0,0,0,17,0,0,0,0,0,0,0,0,0,0,0,0,
0,0,0,0,0,0,0,17,0,0,0,0,0,0,0,0,0,0,0,0,
0,0,0,0,0,0,0,17,0,0,0,0,0,0,0,0,0,0,0,0,
0,0,0,0,0,0,0,17,0,0,0,0,0,0,0,0,0,0,0,0,
0,0,0,0,0,0,0,17,0,0,0,0,0,0,0,0,0,0,0,0,
0,0,0,0,0,0,0,17,0,0,0,0,0,0,0,0,0,0,0,0,
0,0,0,0,0,0,0,17,0,0,0,0,0,0,0,0,0,0,0,0,
0,0,0,0,0,0,0,17,0,0,0,0,0,0,0,0,0,0,0,0,
0,0,0,0,0,0,0,17,0,0,0,0,0,0,0,0,0,0,0,0,
0,0,0,0,0,0,0,17,0,0,0,0,0,0,0,0,0,0,0,0,
0,0,0,0,0,0,0,17,0,0,0,0,0,0,0,0,0,0,0,0,
0,0,0,0,0,0,0,17,0,0,0,0,0,0,0,0,0,0,0,0,
0,0,0,0,0,0,0,17,0,0,0,0,0,0,0,0,0,0,0,0,
0,0,0,0,0,0,0,0,0,0,0,0,0,0,0,0,0,0,0,0,
0,0,0,0,0,0,0,0,0,0,0,0,0,0,0,0,0,0,0,0,
0,0,0,0,0,0,0,0,0,0,0,0,0,0,0,0,0,0,0,0,
0,0,0,0,0,0,0,0,0,0,0,0,0,0,0,0,0,0,0,0,
0,0,0,0,0,0,0,0,0,0,0,0,0,0,0,0,0,0,0,0,
0,0,0,0,0,0,0,0,0,0,0,0,0,0,0,0,0,0,0,0,
0,0,0,0,0,0,0,0,0,0,0,0,0,0,0,0,0,0,0,0
</data>
 </layer>
</map>
